icons/svg/seamark_big/topmark_vertical_black_2conesdown_big.svg

<?xml version="1.0" encoding="UTF-8" standalone="no"?>
<svg
   xmlns:dc="http://purl.org/dc/elements/1.1/"
   xmlns:cc="http://creativecommons.org/ns#"
   xmlns:rdf="http://www.w3.org/1999/02/22-rdf-syntax-ns#"
   xmlns:svg="http://www.w3.org/2000/svg"
   xmlns="http://www.w3.org/2000/svg"
   xmlns:sodipodi="http://sodipodi.sourceforge.net/DTD/sodipodi-0.dtd"
   xmlns:inkscape="http://www.inkscape.org/namespaces/inkscape"
   width="1060"
   height="1060"
   id="svg2"
   version="1.1"
   inkscape:version="0.48.4 r9939"
   sodipodi:docname="topmark_vertical_black_2conesbasetogether_big.svg">
  <defs
     id="defs13">
    <inkscape:path-effect
       effect="gears"
       id="path-effect3774"
       is_visible="true"
       teeth="6"
       phi="-1.2" />
    <inkscape:path-effect
       effect="bend_path"
       id="path-effect3772"
       is_visible="false"
       bendpath="m 95.790098,316.51174 c 144.429032,-206.42506 223.313032,-11.7428 339.548092,0"
       prop_scale="1.19"
       scale_y_rel="false"
       vertical="false"
       bendpath-nodetypes="cc" />
  </defs>
  <sodipodi:namedview
     pagecolor="#ffffff"
     bordercolor="#666666"
     borderopacity="1"
     objecttolerance="10"
     gridtolerance="10"
     guidetolerance="10"
     inkscape:pageopacity="0"
     inkscape:pageshadow="2"
     inkscape:window-width="1920"
     inkscape:window-height="1004"
     id="namedview11"
     showgrid="false"
     inkscape:zoom="0.57543862"
     inkscape:cx="738.9228"
     inkscape:cy="592.89388"
     inkscape:window-x="1680"
     inkscape:window-y="0"
     inkscape:window-maximized="1"
     inkscape:current-layer="svg2" />
  <metadata
     id="metadata2975">image/svg+xmlen<rdf:RDF>
  <cc:Work
     rdf:about="">
    <dc:format>image/svg+xml</dc:format>
    <dc:type
       rdf:resource="http://purl.org/dc/dcmitype/StillImage" />
    <dc:title></dc:title>
  </cc:Work>
</rdf:RDF>
</metadata>
  <path
     style="opacity:0.43913042;color:#000000;fill:#acd8f3;fill-opacity:1;fill-rule:nonzero;stroke:#a35151;stroke-width:0;stroke-linecap:round;stroke-linejoin:miter;stroke-miterlimit:4;stroke-opacity:1;stroke-dashoffset:0;marker:none;visibility:visible;display:inline;overflow:visible;enable-background:accumulate"
     d="m 474.38153,56.717623 c -6.65492,4.26e-4 -13.18078,3.789345 -16.4805,9.568599 -3.29973,5.779255 -3.24558,13.325099 0.13675,19.056401 l 27.1875,45.937497 -11.28125,0 c -6.65492,4.3e-4 -13.18078,3.78935 -16.4805,9.5686 -3.29973,5.77925 -3.24558,13.3251 0.13675,19.0564 l 40.3125,68.15625 0,285.5625 c 0.003,4.96527 2.04784,9.89895 5.55882,13.40993 3.51098,3.51098 8.44466,5.55614 13.40993,5.55882 l 25,0 c 4.96527,-0.003 9.89895,-2.04784 13.40993,-5.55882 3.51098,-3.51098 5.55614,-8.44466 5.55882,-13.40993 l 0,-287.34375 40.875,-66.03125 c 3.53714,-5.71381 3.71426,-13.34875 0.44588,-19.22043 -3.26838,-5.87168 -9.85084,-9.74401 -16.57088,-9.74832 l -11.625,0 28.21875,-45.593747 c 3.53714,-5.713809 3.71426,-13.348746 0.44588,-19.220431 -3.26838,-5.871685 -9.85084,-9.744013 -16.57088,-9.748319 z"
     id="path3305"
     inkscape:connector-curvature="0"
     sodipodi:nodetypes="cscccscccsccscccscccscc" />
  <path
     inkscape:connector-curvature="0"
     style="fill:#000000;fill-opacity:1;stroke:none"
     d="m 585.8361,75.508003 -111.67004,-0.004 54.58138,92.238197"
     id="path3822-6-6-6"
     sodipodi:nodetypes="ccc"
     inkscape:transform-center-y="8.5729552" />
  <path
     style="color:#000000;fill:none;stroke:#000000;stroke-width:23.72768974;stroke-linecap:butt;stroke-linejoin:miter;stroke-miterlimit:4;stroke-opacity:1;stroke-dasharray:none;stroke-dashoffset:0;marker:none;visibility:visible;display:inline;overflow:visible;enable-background:accumulate"
     d="m 530.00106,511.98139 0,-401.52427"
     id="path3065-9"
     inkscape:connector-curvature="0" />
  <path
     inkscape:connector-curvature="0"
     style="fill:#000000;fill-opacity:1;stroke:none"
     d="m 585.8361,150.07877 -111.67005,-0.004 54.5814,92.23824"
     id="path3822-6-6"
     sodipodi:nodetypes="ccc" />
</svg>

<svg width="1060" height="1060" viewBox="0 0 1060 1060" fill="none" xmlns="http://www.w3.org/2000/svg">
<path opacity="0.43913" d="M474.381 56.7178C467.726 56.7182 461.201 60.5071 457.901 66.2864C454.601 72.0656 454.655 79.6115 458.038 85.3428L485.225 131.28H473.944C467.289 131.281 460.763 135.07 457.463 140.849C454.164 146.628 454.218 154.174 457.6 159.905L497.913 228.062V513.624C497.916 518.589 499.96 523.523 503.471 527.034C506.982 530.545 511.916 532.59 516.881 532.593H541.881C546.847 532.59 551.78 530.545 555.291 527.034C558.802 523.523 560.847 518.589 560.85 513.624V226.28L601.725 160.249C605.262 154.535 605.439 146.9 602.171 141.029C598.903 135.157 592.32 131.285 585.6 131.28H573.975L602.194 85.6865C605.731 79.9727 605.908 72.3378 602.64 66.4661C599.371 60.5944 592.789 56.7221 586.069 56.7178H474.381Z" fill="#ACD8F3"/>
<path d="M585.836 75.5079L474.166 75.5039L528.747 167.742" fill="black"/>
<path d="M530.001 511.981V110.457" stroke="black" stroke-width="23.7277"/>
<path d="M585.836 150.079L474.166 150.075L528.747 242.313" fill="black"/>
</svg>
